Simply-Orange-Circles/scalable/apps/miro.svg

<?xml version="1.0" encoding="UTF-8" standalone="no"?>
<svg
   xmlns:dc="http://purl.org/dc/elements/1.1/"
   xmlns:cc="http://creativecommons.org/ns#"
   xmlns:rdf="http://www.w3.org/1999/02/22-rdf-syntax-ns#"
   xmlns:svg="http://www.w3.org/2000/svg"
   xmlns="http://www.w3.org/2000/svg"
   xmlns:sodipodi="http://sodipodi.sourceforge.net/DTD/sodipodi-0.dtd"
   xmlns:inkscape="http://www.inkscape.org/namespaces/inkscape"
   width="48"
   height="48"
   viewBox="0 0 12.7 12.7"
   version="1.1"
   id="svg4"
   sodipodi:docname="miro.svg"
   inkscape:version="0.92.4 (5da689c313, 2019-01-14)">
  <metadata
     id="metadata10">
    <rdf:RDF>
      <cc:Work
         rdf:about="">
        <dc:format>image/svg+xml</dc:format>
        <dc:type
           rdf:resource="http://purl.org/dc/dcmitype/StillImage" />
        <dc:title></dc:title>
      </cc:Work>
    </rdf:RDF>
  </metadata>
  <defs
     id="defs8" />
  <sodipodi:namedview
     pagecolor="#ffffff"
     bordercolor="#666666"
     borderopacity="1"
     objecttolerance="10"
     gridtolerance="10"
     guidetolerance="10"
     inkscape:pageopacity="0"
     inkscape:pageshadow="2"
     inkscape:window-width="1087"
     inkscape:window-height="480"
     id="namedview6"
     showgrid="false"
     inkscape:zoom="4.9166667"
     inkscape:cx="2.1355932"
     inkscape:cy="24"
     inkscape:window-x="0"
     inkscape:window-y="25"
     inkscape:window-maximized="0"
     inkscape:current-layer="svg4" />
  <path
     d="m 6.344,0.073 a 6.29,6.29 0 0 0 -6.29,6.29 6.29,6.29 0 0 0 6.29,6.288 6.29,6.29 0 0 0 6.29,-6.289 6.29,6.29 0 0 0 -6.29,-6.29 z M 6.326,1.009 A 5.407,5.407 0 0 1 11.733,6.416 5.407,5.407 0 0 1 6.326,11.823 5.407,5.407 0 0 1 0.92,6.416 5.407,5.407 0 0 1 6.326,1.01 Z m 1.6,1.794 A 4.733,4.733 0 0 0 5.791,3.33 C 3.411,4.568 1.75,7.677 1.75,7.677 5.27,11.327 8.058,9.829 8.058,9.829 10.754,8.575 10.417,4.119 10.417,4.119 9.854,3.166 8.9,2.805 7.927,2.803 Z m -3.38,2.22 3.423,0.001 c 0.25,0 0.308,0.025 0.51,0.091 0.352,0.175 0.484,0.555 0.499,0.9 0.01,0.568 10e-4,1.139 0.004,1.708 H 8.018 V 6.195 c 0,-0.313 -0.022,-0.553 -0.387,-0.553 -0.407,0 -0.383,0.304 -0.385,0.55 -0.011,0.51 0.003,1.02 0,1.531 H 6.28 V 6.185 c 0,-0.356 -0.03,-0.543 -0.403,-0.543 -0.326,0 -0.366,0.247 -0.366,0.524 -0.016,0.518 0.004,1.038 0,1.557 H 4.546 Z"
     id="path2"
     inkscape:connector-curvature="0"
     style="fill:#ff7f2a" />
</svg>

<svg xmlns="http://www.w3.org/2000/svg" width="48" height="48" viewBox="0 0 12.7 12.7"><path fill="#ff7f2a" d="M6.34.07a6.29 6.29 0 0 0-6.29 6.3 6.29 6.29 0 0 0 6.3 6.28 6.29 6.29 0 0 0 6.28-6.29A6.29 6.29 0 0 0 6.34.07zm-.01.94a5.4 5.4 0 0 1 5.4 5.4 5.4 5.4 0 0 1-5.4 5.41 5.4 5.4 0 0 1-5.41-5.4A5.4 5.4 0 0 1 6.32 1zm1.6 1.8a4.73 4.73 0 0 0-2.14.52C3.41 4.57 1.75 7.68 1.75 7.68c3.52 3.65 6.3 2.15 6.3 2.15 2.7-1.25 2.37-5.71 2.37-5.71a2.75 2.75 0 0 0-2.5-1.32zM4.55 5.01h3.42c.25 0 .3.03.5.1.36.17.5.55.5.9.02.56 0 1.13.01 1.7h-.96V6.2c0-.32-.02-.56-.39-.56-.4 0-.38.3-.38.55v1.53h-.97V6.18c0-.35-.03-.54-.4-.54-.33 0-.37.25-.37.53v1.55h-.96v-2.7z"/></svg>
